assets/sprite/svg/navbar__hamburger.svg

<svg width="18" height="12" fill="none" xmlns="http://www.w3.org/2000/svg"><path d="M0 12h18v-2H0v2zm0-5h18V5H0v2zm0-7v2h18V0H0z" fill="#fff"/></svg>

<svg width="18" height="12" viewBox="0 0 18 12" fill="none" xmlns="http://www.w3.org/2000/svg">
<path d="M0 12H18V10H0V12ZM0 7H18V5H0V7ZM0 0V2H18V0H0Z" fill="white"/>
</svg>
